X:499
T: ELEND HAT MICH UMFANGEN
N: E0463
O: Europa, Mitteleuropa, Deutschland
R: Liebes - Lied, Klage
M: 6/4
L: 1/16
K: A
A4 | A8A4A8B4 | =c8B3A=G8
A4 | =c8B3AA8G4 | A12-A8
A4 | A8A4A8B4 | =c8B3A=G8
A4 | =c8B3AA8G4 | A12-A8
=c4 | B8A4=G8=F4 | E8E4E8
=c4 | B8A4=G8=F4 | E8E4E8
E4 | A8A4A8B4 | =c8B3A=G8
A4 | =c8B3AA8G4 | A12-A8

